svgs/warpshare.svg

<svg width="192" height="192" viewBox="0 0 192 192" fill="none" xmlns="http://www.w3.org/2000/svg">
<mask id="path-1-inside-1_602_397" fill="white">
<path d="M150 176H41C34.3726 176 29 170.627 29 164V60.6006C29 57.3979 30.2803 54.328 32.5559 52.0743L65.4741 19.4737C67.7211 17.2484 70.7557 16 73.9181 16H79.5855H150C156.627 16 162 21.3726 162 28V164C162 170.627 156.627 176 150 176Z"/>
</mask>
<path d="M150 176H41C34.3726 176 29 170.627 29 164V60.6006C29 57.3979 30.2803 54.328 32.5559 52.0743L65.4741 19.4737C67.7211 17.2484 70.7557 16 73.9181 16H79.5855H150C156.627 16 162 21.3726 162 28V164C162 170.627 156.627 176 150 176Z" stroke="black" stroke-width="24" mask="url(#path-1-inside-1_602_397)"/>
<path d="M29 66.5H73.5C76.8137 66.5 79.5 63.8137 79.5 60.5V16" stroke="black" stroke-width="12"/>
<path d="M128.418 94.2519V54.7379C128.418 53.7143 127.062 53.3517 126.551 54.2385L95.8641 107.486C95.4799 108.153 95.961 108.985 96.7305 108.985H127.418C127.97 108.985 128.418 109.433 128.418 109.985V150.233C128.418 151.258 129.777 151.619 130.286 150.729L154.868 107.69C154.955 107.539 155 107.368 155 107.194V96.2519C155 95.6996 154.552 95.2519 154 95.2519H129.418C128.865 95.2519 128.418 94.8041 128.418 94.2519Z" stroke="black" stroke-width="10"/>
</svg>

<svg xmlns="http://www.w3.org/2000/svg" width="192" height="192" fill="none" stroke="#000" viewBox="0 0 192 192"><mask id="a" fill="#fff" stroke="none"><path d="M150 176H41c-6.627 0-12-5.373-12-12V60.6a12 12 0 0 1 3.556-8.526l32.918-32.6A12 12 0 0 1 73.918 16H150c6.627 0 12 5.373 12 12v136c0 6.627-5.373 12-12 12"/></mask><path stroke-width="24" d="M150 176H41c-6.627 0-12-5.373-12-12V60.6a12 12 0 0 1 3.556-8.526l32.918-32.6A12 12 0 0 1 73.918 16H150c6.627 0 12 5.373 12 12v136c0 6.627-5.373 12-12 12Z" mask="url(#a)"/><path stroke-width="12" d="M29 66.5h44.5a6 6 0 0 0 6-6V16"/><path stroke-width="10" d="M128.418 94.252V54.738c0-1.024-1.356-1.386-1.867-.5l-30.687 53.248a1 1 0 0 0 .867 1.499h30.687a1 1 0 0 1 1 1v40.248c0 1.025 1.359 1.386 1.868.496l24.582-43.039a1 1 0 0 0 .132-.496V96.252a1 1 0 0 0-1-1h-24.582a1 1 0 0 1-1-1Z"/></svg>
